X:15
T:An old man whould be wooing 
O:No 15  Page 5 William Clarke  MS 1858
N:MS shows source Barber of Seville
N:No key signature in MS
N:Eb editorial
I:abc2nwc
M:6/8
L:1/8
K:Eb
B|e2d e2f|(g3e2)e|f2f e2d|ec'b agf|
e2d e2f|(g3e2)e|f2f e2d|e3-e||
g|f2e d2c|d2e f2g|f2e d2c|B3-B2B|(e3/2f/2)e d2c|{d}c3z2c|(Af)f (gf)e|
e3d2B|e2e ede|f2g a2f|fee dcd|e3e2|]

